X:1
T:Stars of the Summer Night
T:Stars of the Summer Night - TTBB
T:Longfellow/Woodbury
%%score [ 1 2 3 4 ]
L:1/8
Q:1/4=60
M:4/4
K:Bb
V:1 treble-8 nm="Soprano"
V:2 treble-8 nm="Alto"
V:3 bass nm="Tenor"
V:4 bass nm="Bass"
V:1
 f4 =e2 f2 | B3 c d4 | e4 d2 B2 | d3 c c4 | B4 e2 g2 | f3 e d2 B2 | d2 z d f2 e2 | d8 | g8 | %9
w: 1.Stars of the|sum- mer night,|Far in yon|a- zure deeps,|Hide, hide your|gold- en light, She|sleeps, my la- dy|sleeps,|She|
w: 2.Moon of the|sum- mer night,|Far down yon|west- ern steems,|Sink, sink in|sil- ver light, She|sleeps, my la- dy|sleeps,|She|
w: 3.Dreams of the|sum- mer night,|Tell her, her|lov- er keeps|Watch while, in|slum- ber light, She|sleeps, my la- dy|sleeps,|She|
 f4 z2 B2 | d2 z d f2 e2 | d8 |] %12
w: sleeps, She|sleeps, my la- dy|sleeps.|
w: sleeps, She|sleeps, my la- dy|sleeps.|
w: sleeps, She|sleeps, my la- dy|sleeps.|
V:2
 d4 ^c2 d2 | B3 B B4 | B4 B2 B2 | B3 A A4 | B4 B2 e2 | d3 c B2 B2 | B2 z B A2 c2 | B8 | (B4 e4) | %9
w: 1.Stars of the|sum- mer night,|Far in yon|a- zure deeps,|Hide, hide your|gold- en light, She|sleeps, my la- dy|sleeps,|She _|
w: 2.Moon of the|sum- mer night,|Far down yon|west- ern steems,|Sink, sink in|sil- ver light, She|sleeps, my la- dy|sleeps,|She _|
w: 3.Dreams of the|sum- mer night,|Tell her, her|lov- er keeps|Watch while, in|slum- ber light, She|sleeps, my la- dy|sleeps,|She _|
 d4 z2 B2 | B2 z B d2 c2 | B8 |] %12
w: sleeps, She|sleeps, my la- dy|sleeps.|
w: sleeps, She|sleeps, my la- dy|sleeps.|
w: sleeps, She|sleeps, my la- dy|sleeps.|
V:3
 F,4 G,2 F,2 | D,3 E, F,4 | G,4 F,2 D,2 | F,3 F, F,4 | G,4 G,2 B,2 | B,3 F, F,2 G,2 | %6
w: 1.Stars of the|sum- mer night,|Far in yon|a- zure deeps,|Hide, hide your|gold- en light, She|
w: 2.Moon of the|sum- mer night,|Far down yon|west- ern steems,|Sink, sink in|sil- ver light, She|
w: 3.Dreams of the|sum- mer night,|Tell her, her|lov- er keeps|Watch while, in|slum- ber light, She|
 F,2 z F, F,2 F,2 | F,8 | (E,2 F,2 G,2 A,2) | B,4 z2 G,2 | F,2 z F, F,2 F,2 | F,8 |] %12
w: sleeps, my la- dy|sleeps,|She _ _ _|sleeps, She|sleeps, my la- dy|sleeps.|
w: sleeps, my la- dy|sleeps,|She _ _ _|sleeps, She|sleeps, my la- dy|sleeps.|
w: sleeps, my la- dy|sleeps,|She _ _ _|sleeps, She|sleeps, my la- dy|sleeps.|
V:4
 B,,4 B,,2 B,,2 | B,,3 B,, B,,4 | E,4 B,,2 B,,2 | F,3 F, F,4 | G,4 G,2 E,2 | B,,3 B,, B,,2 G,2 | %6
w: 1.Stars of the|sum- mer night,|Far in yon|a- zure deeps,|Hide, hide your|gold- en light, She|
w: 2.Moon of the|sum- mer night,|Far down yon|west- ern steems,|Sink, sink in|sil- ver light, She|
w: 3.Dreams of the|sum- mer night,|Tell her, her|lov- er keeps|Watch while, in|slum- ber light, She|
 F,2 z F, F,,2 F,,2 | B,,8 | E,8 | B,,4 z2 G,2 | F,2 z F, F,,2 F,,2 | B,,8 |] %12
w: sleeps, my la- dy|sleeps,|She|sleeps, She|sleeps, my la- dy|sleeps.|
w: sleeps, my la- dy|sleeps,|She|sleeps, She|sleeps, my la- dy|sleeps.|
w: sleeps, my la- dy|sleeps,|She|sleeps, She|sleeps, my la- dy|sleeps.|

